X: 18870
T: In Heidi's Chamber
R: reel
M: 4/4
K: Ddorian
A2|:dfed c2(3 ABc|dcAG FDD2|c3d cAAG|Addc d2de|
fedf edcA|dcAF (3 GGG FG|Addc AcAD|(3 FED EC D2 A2:|
|:d2^fd ad^fd|(3 ccc ec gcec|Bdgb agAB|(3 cBA BG A3A|
dfed c2(3 ABc|dcAF (3 GGG FG|Addc AcAD|1 (3 FED EC D2 A2:|2 (3 FED EC D4||

